X:21134 
T:MISS DOWNING'S FANCY 
B:DMI.0333
Z:Nordberg/Black
R:jig
%Q:1/4=160
M:6/8
L:1/8
K:Em
E2F GFG|AGA B2e|E2F GFG|AFD FGA|
E2F GFG|AGA Bcd|edB cBA|1 BAG FED:|\
[2 BGE E3||
|:e2f gfe|dBd e3|Bee Bee|fdB def|
e2f gfe|dBd e2f|gfe dBG|1 AGA BGE:|\
[2 BAG FED|"final"E6|]

%%%

